X: 1
T: Linnea  [A]
C: Leslie Lassetter 18 Nov 2005
N: born to Ross & Kristin Dickson BRAY 6 October 2005
R: waltz
Z: 2012 John Chambers <jc:trillian.mit.edu>
S: handwritten MS from Jean Monroe 2012-5-31
M: 3/4
L: 1/8
Q: "gentle, lilting"
N: Dance key
K: A
AB |\
"A"c3 B A2 | A3 B c2 | "D"F6 | "A"E4 AB |\
"A"c3 B A2 | A3 B c2 | "F#m"F6 | F2 z2 ||
AB |\
"A"c3 B A2 | A3 B c2 | "D"F6 | "E"E4 AB |\
"A"c3 B A2 | "E"Be- e4 | "A"A6- | A2 z2 |]
fg |\
"F#m"a4 b2 | a3 g f2 | "A"e3 c A2 | "F#m"A4 a2 |\
"E"b6 | b3 a b2 | "A"c'3 a f2 | "F#m"f4 ||
","yg2 |\
"D"a4 b2 | a3 g f2 | "A"e3 c A2 | "D"a4 AB |\
"A"c3 B A2 | "E"B d3 G2 | "D"A4 B2 | "A"A4 |]
